dist/svgs/align-center.svg

<svg xmlns="http://www.w3.org/2000/svg" viewBox="0 0 512 512"><path d="M0 96h512v65H0V96zm86 212v-66h340v66H86zm94 146v-65h152v65H180z"/></svg>

<?xml version="1.0" encoding="UTF-8" standalone="no"?><svg   xmlns:svg="http://www.w3.org/2000/svg"   xmlns="http://www.w3.org/2000/svg"   version="1.1"   width="512"   height="512"   viewBox="0 0 512 512">  <path     d="M0 96H512V161H0V96zM86 308V242H426V308H86zM180 454V389H332V454H180z"     id="align-center" /></svg>
